X:1
T:Un giorno mi prego
T:Adriaan Willaert
T:Source : Canzone villanesche a 4 voci---Venetia---A.Gardano---1559. Editor : André Vierendeels (07/11/14).
T:Un giorno mi prego
C:Adriaan Willaert
%%score [ 1 2 3 4 ]
L:1/8
Q:1/4=140
M:3/2
K:F
V:1 treble nm="Cantus" snm="C"
V:2 treble nm="Altus" snm="A"
V:3 treble-8 nm="Tenor" snm="T"
V:4 bass nm="Bassus" snm="B"
V:1
 G4 G4 A4 | B8 B4 | A8 A4 | c8 B4 | A8 A4 | A4 A4 A4 | A8 c4- | c4 G4 A4 | B4 B8 | %9
w: Un gior- no|mi pre-|go un|ve- do-|vel- la|d'an- dar un|dur sco-|* glio con|lei pas-|
"^#""^#" G6 FE F4 | G4 B6 B2 | A4 A4 G4 | G4 A4 c4 | c4 B8 | G4 G4 A4 | A4 B4 G4 | A8 c4 | B4 A8 | %18
w: sa- * * *|re na- vi-|gan- do su|la sua na-|vi- cel-|la, con ar-|te'il- ti- mon|sa ben|go- ver-|
 G8 F4 |[M:2/2]"^. =" G4 z2 G2 | G2 G2 G2 G2 | G4 c2 c2 | d4 c4- | c4 f4 | d4 z2 c2- | %25
w: na- *|re, ma|con la lin- gua'in-|tri- ga gri-|dan- do|_ bar-|ca si-|
 c2 c2 z2 d2- | d2 d2 z2 c2 | c4 c4 | A6 A2 | B2 G2 B2 A2 | G2 G3 F/E/ F2 | G4 z4 |[M:3/2] B8 c4 | %33
w: * a sta|_ li tien|du- ro|vo- ga|prem' a sta bo-|na vi- * * *|a,|vo- ga|
 c8 A4 | B4 B8 | G4 A8 | ^F12 ||"^#" F4 A4 =B4 | c8 c4 | c4 c4 c4 |"^-natural" d4 B8 | G4 z4 A4 | %42
w: prem' a|sta bo-|na vi-|a,|co'l re- m'in|me- zo|mi mis- s'a|vo- ga-|re a|
 c4 d6 d2 | d4 d4 c4 | B4 A8 | d8 c4 | d8 z4 | d4 d4 d4 | =B8 c4 | d4 c4 B4 | B4 A8 | A4 A4 A4 | %52
w: lei mul- to|piac- qu'el mi-|o gran|sten- ta-|re|co'l ven- t'in|pop- pa|pen- sai d'a-|ne- ga-|re ma m'a-|
 c4 c8 | c4 d8 | =B8 c4 | c4 c8 | =B8 c4 | c4 c4 A4 | B4 B4 G4 | A4 B8 | G8 F4 | %61
w: iu- to|da Ber-|ghem mio|com- pa-|re, ma|m'a- iu- to|da Ber- ghem|mio com-|pa- *|
[M:2/2]"^. =" G4 z2 G2 | A3 A A2 G2 | A2 A2 G4- | G4 G4- | G2 G2 G2 G2 | ^F2 F2 z2 G2- | G2 G2 A4 | %68
w: re, et|so- spi- ran- do|dis- si: deh|_ ca-|* ra ve- do-|vel- la co-|* si tut-|
 A2 A2 d4 | ^c2 d2 d3 c | B2 G2 B2 A2- | AG G4 F2 | G4 z4 |[M:3/2]"^=." G8 G4 | A8 A4 | A4 d8 | %76
w: ti gl'a- mi-|ci su la tua|na- vi- cel- *||la,|co- si|tut- ti|gl'a- mi-|
 ^c4 d4 d4- | d2 c2 B4 G4 | B4 A6 G2 | G8 F4 | G12 |] %81
w: ci su la|_ tua na- vi-|cel- * *||la.|
V:2
 D4 D4 F4 | F8 F4 | F8 F4 | G8 G4 | F8 F4 | F4 F4 F4 | F8 E4- | E4 E4 F4 | D4 G6 F2 | _E4 D8 | %10
w: Un gior- no|mi pre-|go un|ve- do-|vel- la|d'an- dar un|dur sco-|* glio con|lei pas- sa-||
 D4 G6 G2 | F4 F4 D4 | E4 F4 A4 | G4 G8 | E4 E4 F4 | F4 B,2 C2 D2 E2 | F4 C4 F4 | D4 F8 | _E4 D8 | %19
w: re na- vi-|gan- do su|la sua na-|vi- cel-|la, con ar-|te'il ti- * * *|mon sa ben|go- ver-|na- *|
[M:2/2] D4 z2 E2 | E2 E2 D2 D2 | E4 G2 A2 | B4 A4 | A6 F2 | z2 B4 G2 | z2 A4 F2 | z2 B2 G4- | %27
w: re, ma|con la lin- gua'in-|tri- ga gri-|dan- do|bar- ca|si- a|sta li|tien du-|
 G4 A4 | z2 F4 F2 | D4 D2 F2 | _E2 C2 D4 | D4 z4 |[M:3/2] G8 G4 | A8 F4 | D4 G8 | D4 E8 | D12 || %37
w: * ro|vo- ga|prem' a sta|bo- na vi-|a,|vo- ga|prem' a|sta bo-|na vi-|a,|
 D4 ^F4 G4 | A8 A4 | G4 G4 A4 | A4 G8 | E4 z4 F4 | A4 B6 B2 | B8 A4 | D8 A4 | A4 A8 | A8 z4 | %47
w: co'l re- m'in|me- zo|mi mis- s'a|vo- ga-|re a|lei mul- to|piac- qu'el|mio gran|sten- ta-|re|
 B4 B4 A4 | D8 A4 | A4 A4 F4 | G4 E8 | ^F4 F4 F4 | G4 G8 | A4 A8 | G8 G4 | E4 A8 | D8 E4 | %57
w: co'l ven- t'in|pop- pa|pen- sai d'a-|ne- ga-|re ma m'a-|iu- to|da Ber-|ghem mio|com- pa-|re, ma|
 F4 C4 F4- | F4 B,4 _E4- | E4 D4 B,4 | C4 D8 |[M:2/2] D4 z2 E2 | F3 F F2 D2 | F2 F2 _E4 | %64
w: m'a- iu- to|_ da Ber-|* ghem mio|com- pa-|re, et|so- spi- ran- do|dis- si: deh|
"^b" B,4 E4- |"^b" E2 E2 D2 D2 | D2 D2 z2 E2- | E2 D2 F4 | F2 F2 F3 G | A2 B2 B3 A | G2 G4 F2 | %71
w: _ ca-|* ra ve- do-|vel- la co-|* si tut-|ti gl'a- mi- *|ci su la tua|na- vi- cel-|
 _E2 C2 D4 | D4 z4 |[M:3/2] E8 D4 | F8 F4 | F4 F6 G2 | A4 B4 B4- | B2 A2 G4 G4- | G4 F4 _E4 | %79
w: |la,|co- si|tut- ti|gl'a- mi- *|ci su la|_ tua na- vi|_ cel- *|
 C4 D8 | D12 |] %81
w: |la.|
V:3
 G4 B4 c4 | d8 d4 | c8 d4 | _e8 d4 | d8 d4 | c4 c4 c4 | d8 G4- | G4 c4 c4 | B4 d6 c2 | B4 A8 | %10
w: Un gior- no|mi pre-|go un|ve- do-|vel- la|d'an- dar un|dur sco-|* glio con|lei pas- sa-||
 G4 d6 d2 | d4 A4 =B4 | c4 c4 f4 | _e4 d8 | c8 c4 | d8 B4 | c4 A8 | B4 d4 c4 | c4 A8 | %19
w: re na- vi-|gan- do su|la sua na-|vi- cel-|la, con|ar- te'il|ti- mon|sa ben go-|ver- na-|
[M:2/2] G4 z2 G2 | c2 c2 =B2 B2 | c4 e2 e2 | f4 f4 | f4 d4 | z2 g4 e2 | z2 f4 d2 | z2 d2 e4- | %27
w: re, ma|con la lin- gua'in-|tri- ga gri-|dan- do|bar- ca|si- a|sta li|tien du-|
 e4 f4 | c4 c2 d2- | d2 B2 G2 c2- | c2 G2 A4 | G4 z4 |[M:3/2] d8 e4 | f8 c4 | B4 d8 |"^#" d4 c8 | %36
w: * ro|vo- ga prem'|_ a sta bo-|* na vi-|a,|vo- ga|prem' a|sta bo-|na vi-|
 A12 || A4 d4 d4 | f8 f4 | e4 e4 f4 | f4 d8 | c4 z4 c4 | f4 f6 f2 | g8 e4 | g4 f8 | f4 e8 | d8 z4 | %47
w: a,|co'l re- m'in|me- zo|mi mis- s'a|vo- ga-|re a|lei mul- to|piac- qu'el|mio gran|sten- ta-|re|
 d4 g4 f4 | g4 d4 f4 | f4 e4 d4 | d8 ^c4 | z4 d4 d4 | e4 e8 | f4 f8 | d4 d4 e4 |"^#" g8 f4 | %56
w: co'l ven- t'in|pop- pa pen-|sai d'a- ne-|ga- re|ma m'a-|iu- to|da Ber-|ghem mio com-|pa- *|
 g8 G4 | A4 A4 c4 | d4 G4 B4 | c4 F4 G4- | G4 A8 |[M:2/2] G4 z2 c2 | c3 c d2 =B2 | c2 d2 B4 | %64
w: re, ma|m'a- iu- to|da Ber- ghem|mio com- pa-||re, et|so- spi- ran- do|dis- si: deh|
 G4 c4- | c2 G2 B2 B2 | A2 A2 z2 c2- | c2 =B2 c4 | d2 d2 d4 | e2 g4 d2- | d2 _e2 d3 c | B2 G2 A4 | %72
w: _ ca-|* ra ve- do-|vel- la co-|* si tut-|ti gl'a- mi-|ci su la|_ tua na- vi-|cel- * *|
 G4 z4 |[M:3/2] c8 =B4 | c8 d4 | d4 d8 | e4 g8 |"^b" d8 e4 | d6 c2 B4 | G4 A8 | G12 |] %81
w: la,|co- si|tut- ti|gl'a- mi-|ci su|la tua|na- * *|vi- cel-|la.|
V:4
 G,4 G,4 F,4 | B,,8 B,,4 | F,8 D,4 | C,8 G,4 | D,8 D,4 | F,4 F,4 F,4 | D,8 C,4- | C,4 C,4 F,4 | %8
w: Un gior- no|mi pre-|go un|ve- do-|vel- la|d'an- dar un|dur sco-|* glio con|
 G,4 G,4 G,4- | G,4 D,8 | z4 G,6 G,2 | D,4 D,4 G,4 | C,4 F,4 F,4 | C,4 G,8 | C,4 z4 F,4 | D,4 G,8 | %16
w: lei pas- sa-|* re|na- vi-|gan- do su|la sua na-|vi- cel-|la, con|ar- te'il|
 F,4 F,8 | G,4 D,4 F,4 | C,4 D,8 |[M:2/2] G,4 z2 C,2 | C,2 C,2 G,2 G,2 | C,4 C,2 C2 | B,4 F,4- | %23
w: ti- mon|sa ben go-|ver- na-|re, ma|con la lin- gua'in-|tri- ga gri-|dan- do|
 F,4 z2 B,2- | B,2 G,2 z2 C2- |"^#""^#" C2 F,2 z2 B,2- |"^=." B,2 G,2 z2 C2 | C4 F,4 | F,6 D,2 | %29
w: _ bar-|* ca si-|* a sta|_ li tien|du- ro|vo- ga|
 G,4 G,2 F,2 | C,2 _E,2 D,4 | G,4 z4 |[M:3/2] G,8 C,4 | F,8 F,4 | G,4 G,8 | B,4 A,8 | D,12 || %37
w: prem' a sta|bo- na vi-|a,|vo- ga|prem' a|sta bo-|na vi-|a,|
 D,4 D,4 G,4 | F,8 F,4 | C,4 C,4 F,4 | D,4 G,8 | C,4 z4 F,4 | F,4 B,6 B,2 | G,8 A,4 | G,4 D8 | %45
w: co'l re- m'in|me- zo|mi mis- s'a|vo- ga-|re a|lei mul- to|piac- qu'el|mio gran|
 D4 A,8 | D,8 z4 | G,4 G,4 D,4 | G,8 F,4 | D,4 A,4 B,4 | G,4 A,8 | D,4 D,4 D,4 | C,4 C,8 | %53
w: sten- ta-|re|co'l ven- t'in|pop- pa|pen- sai d'a-|ne- ga-|re ma m'a-|iu- to|
 F,4 D,8 | G,8 C4 |"^#" C4 A,8 | G,8 C,4 | F,6 F,2 F,4 | D,4 _E,6 D,2 |"^b" C,4 B,,4 E,4 | %60
w: da Ber-|ghem mio|com- pa-|re, ma|m'a- iu- to|da Ber- *|* ghem mio|
"^b" E,4 D,8 |[M:2/2] G,4 z2 C,2 | F,3 F, D,2 G,2 | F,2 D,2 _E,4- | E,4 C,4- | C,2 C,2 G,2 G,2 | %66
w: com- pa-|re, et|so- spi- ran- do|dis- si: deh|_ ca-|* ra ve- do-|
"^#" D,2 D,2 z2 C,2- | C,2 G,2 F,4 | D,2 D,2 B,4 | A,2 G,2 G,4- | G,2 C,2 D,2 D,2 | _E,4 D,4 | %72
w: vel- la co-|* si tut-|ti gl'a- mi-|ci su la|_ tua na- vi-|cel- *|
 G,4 z4 |[M:3/2] C,8 G,4 | F,8 D,4 |"^#" D,4 B,8 | A,4 G,8 | G,8 C,4 | D,4 D,4 _E,4- | E,4 D,8 | %80
w: la,|co- si|tit- ti|gl'a- mi-|ci su|la tua|na- vi- cel-||
 G,12 |] %81
w: la.|

